X:1
T:Hallelujah, I Am Free
T:Hallelujah, I Am Free
T:Matthew Lindsay McPhail
T:G. M. Bills, 1899
T:Public Domain Courtesy of the Cyber Hymnal™
T:Public Domain Courtesy of the Cyber Hymnal™
C:Matthew Lindsay McPhail
Z:Public Domain
Z:Courtesy of the Cyber Hymnal™
%%score ( 1 2 ) ( 3 4 )
L:1/8
Q:1/4=93
M:4/4
K:Eb
V:1 treble 
V:2 treble 
V:3 bass 
V:4 bass 
V:1
 [B,E][B,F] | [EG][EG][EG][B,F] [B,F][B,E][EG][FA] | [GB][GB][GB][FA] [EG]2 [GB][GB] | %3
w: 1.~At the|mer- cy seat I lin- ger, Where I|see the crim- son seal, Of the|
w: 2.~Here the|ho- ly bread is brok- en, To sus-|tain my faint- ing heart, Here the|
w: 3.~Here I|drink the cup of heal- ing That will|soothe my trou- bled breast, Filled with|
 [Ge][Ge][Ad][Ac] [GB][EG][B,F][B,E] | [DF][DF][FA][EG] [DF]2 [B,E][B,F] | %5
w: Love that bowed and suf- fered, Death and|dark- ness to re- peal; There my|
w: gra- cious word is spok- en That will|make my grief de- part; “Lo! thy|
w: faith and hope ce- les- tial, Now I|en- ter in- to rest; From the|
 [EG][EG][EG][B,F] [B,F][B,E][EG][FA] | [GB][GB][GB][FA] [EG]2 | %7
w: res- cued soul is kneel- ing, Lost in|won- der at the grace,|
w: sins are all for- giv- en, Go in|peace and sin no more!”|
w: Spir- it’s ho- ly al- tar, To my|lips will leap the flame,|
 [GB][GB][Ge][Ge] [Ad][Ac][GB][Ge][GB][FA] | [EG][EG][DG][B,F] !fermata![B,E]2 x2 || %9
w: That re- moves the curse e- ter- nal, From a|lost and ru- ined race.|
w: Sa- tan’s cru- el chain is riv- en, And my|slav- er- y is o’er.|
w: That in- spires the con- stant spread- ing Of my|great Re- deem- er’s fame.|
"^Refrain" [GB][Ge] x4 | [Ge]2 [Fd]2 [Fd]2 [Af]2 | [Af]2 [Ge]4 [GB][GB] | [Ac]2 [ce]2 [Bd]2 [Ac]2 | %13
w: At the|mer- cy seat I|lin- ger, Lo! the|sprink- led blood I|
w: ||||
w: ||||
 [GB]6 [GB][GB] | [Ac]2 [ce]2 [Bd]2 [Ac]2 | [GB]2 [Ge]4 [GB][FA] | [EG]2 [EG]2 [DG]2 [B,F]2 | %17
w: see, Hal- le-|lu- jah, I am|ran- somed! Hal- le-|lu- jah, I am|
w: ||||
w: ||||
 E6 x2 |] x6 |] %19
w: free!||
w: ||
w: ||
V:2
 x2 | x8 | x8 | x8 | x8 | x8 | x6 | x10 | x8 || x6 | x8 | x8 | x8 | x8 | x8 | x8 | x8 | %17
 (B,B,CC B,2) x2 |] x6 |] %19
V:3
 [E,G,][E,A,] | [E,B,][E,B,][E,B,][E,A,] [E,A,][E,G,][E,B,][E,B,] | %2
w: ~ ~|~ ~ ~ ~ ~ ~ ~ ~|
 [E,E][E,E][B,,D][B,,B,] [E,B,]2 [E,E][E,E] | [E,B,][E,B,][E,C][E,D] [E,E][E,B,][E,A,][E,G,] | %4
w: ~ ~ ~ ~ ~ ~ ~|~ ~ ~ ~ ~ ~ ~ ~|
 [B,,B,][B,,B,][D,B,][E,B,] (B,A,)[E,G,][E,A,] | %5
w: ~ ~ ~ ~ ~ * ~ ~|
 [E,B,][E,B,][E,B,][E,A,] [E,A,][E,G,][E,B,][E,B,] | [E,E][E,E][B,,D][B,,B,] [E,B,]2 | %7
w: ~ ~ ~ ~ ~ ~ ~ ~|~ ~ ~ ~ ~|
 [E,E][E,E] x8 | [E,B,][E,B,][E,C][E,D] [E,E][E,B,][G,E][A,C] || %9
w: ~ ~|~ ~ ~ ~ ~ ~ ~ ~|
 B,B,[B,,B,][B,,A,] !fermata![E,G,]2 | [E,B,][G,B,] x6 | B,B,B,B, B,B,B,B, | %12
w: ~ ~ ~ ~ ~|At the|mer- cy seat I lin- ger, At the|
 [E,B,][E,B,][E,B,][E,B,] [E,B,][E,B,][E,E][E,E] | [A,E][A,E][A,E][A,E] [A,E]2 [A,E][A,E] | %14
w: mer- cy seat I lin- ger, Lo! the|sprink- led blood I see! Lo! the|
 [E,E][E,E][E,E][E,E] [E,E]2 [E,E][E,E] | [A,E][A,E][A,E][A,E] [A,E][A,E][A,E][A,E] | %16
w: sprink- led blood I see! Hal- le-|lu- ja,h I am ran- somed! Hal- le-|
 [E,E][E,E][E,B,][E,B,] [E,B,][E,B,][G,E][A,E] | B,B,B,B, B,2 [B,,A,][B,,A,] |] %18
w: lu- jah, I am ran- somed! Hal- le-|lu- jah, I am free! Hal- le-|
 [E,G,][E,G,][E,A,][E,A,] !fermata![E,G,]2 |] %19
w: lu- jah, I am free!|
V:4
 x2 | x8 | x8 | x8 | x4 B,,2 x2 | x8 | x6 | x10 | x8 || B,B, x4 | x8 | B,B,B,B, B,B,B,B, | x8 | %13
 x8 | x8 | x8 | x8 | B,B,B,B, B,2 x2 |] x6 |] %19

